assets/img/blog/2015/02/git.svg

<svg height="114.8625" width="114.8625" xmlns="http://www.w3.org/2000/svg"><path d="m901.543 500.352-401.191 401.175c-23.094 23.11-60.567 23.11-83.692 0l-83.301-83.316 105.672-105.676c24.563 8.293 52.727 2.727 72.297-16.847 19.688-19.696 25.203-48.102 16.699-72.75l101.856-101.844c24.648 8.496 53.066 3.004 72.754-16.711 27.5-27.492 27.5-72.059 0-99.574-27.52-27.516-72.078-27.516-99.61 0-20.683 20.703-25.8 51.097-15.312 76.582l-95 94.992v-249.969c6.699-3.32 13.027-7.742 18.613-13.312 27.5-27.497 27.5-72.059 0-99.598-27.5-27.488-72.09-27.488-99.57 0-27.5 27.539-27.5 72.101 0 99.598 6.797 6.789 14.668 11.925 23.066 15.363v252.281c-8.398 3.438-16.25 8.531-23.066 15.367-20.828 20.821-25.84 51.395-15.156 76.977l-104.18 104.195-275.0978-275.074c-23.10545-23.129-23.10545-60.602 0-83.711l401.2108-401.1758c23.098-23.10545 60.559-23.10545 83.692 0l399.316 399.3168c23.113 23.113 23.113 60.605 0 83.711" fill="#f03c2e" transform="matrix(.125 0 0 -.125 0 114.8625)"/></svg>

<?xml version="1.0" encoding="UTF-8" standalone="no"?>
<!-- Created with Inkscape (http://www.inkscape.org/) -->

<svg
   xmlns:dc="http://purl.org/dc/elements/1.1/"
   xmlns:cc="http://creativecommons.org/ns#"
   xmlns:rdf="http://www.w3.org/1999/02/22-rdf-syntax-ns#"
   xmlns:svg="http://www.w3.org/2000/svg"
   xmlns="http://www.w3.org/2000/svg"
   xmlns:inkscape="http://www.inkscape.org/namespaces/inkscape"
   version="1.1"
   width="114.8625"
   height="114.8625"
   id="svg2"
   xml:space="preserve"><metadata
     id="metadata8"><rdf:RDF><cc:Work
         rdf:about=""><dc:format>image/svg+xml</dc:format><dc:type
           rdf:resource="http://purl.org/dc/dcmitype/StillImage" /></cc:Work></rdf:RDF></metadata><defs
     id="defs6" /><g
     transform="matrix(1.25,0,0,-1.25,0,114.8625)"
     id="g10"><g
       transform="scale(0.1,0.1)"
       id="g12"><path
         d="M 901.543,500.352 500.352,901.527 c -23.094,23.11 -60.567,23.11 -83.692,0 L 333.359,818.211 439.031,712.535 c 24.563,8.293 52.727,2.727 72.297,-16.847 19.688,-19.696 25.203,-48.102 16.699,-72.75 L 629.883,521.094 c 24.648,8.496 53.066,3.004 72.754,-16.711 27.5,-27.492 27.5,-72.059 0,-99.574 -27.52,-27.516 -72.078,-27.516 -99.61,0 -20.683,20.703 -25.8,51.097 -15.312,76.582 l -95,94.992 0,-249.969 c 6.699,-3.32 13.027,-7.742 18.613,-13.312 27.5,-27.497 27.5,-72.059 0,-99.598 -27.5,-27.488 -72.09,-27.488 -99.57,0 -27.5,27.539 -27.5,72.101 0,99.598 6.797,6.789 14.668,11.925 23.066,15.363 l 0,252.281 c -8.398,3.438 -16.25,8.531 -23.066,15.367 -20.828,20.821 -25.84,51.395 -15.156,76.977 L 292.422,777.285 17.3242,502.211 c -23.10545,-23.129 -23.10545,-60.602 0,-83.711 L 418.535,17.3242 c 23.098,-23.10545 60.559,-23.10545 83.692,0 L 901.543,416.641 c 23.113,23.113 23.113,60.605 0,83.711"
         inkscape:connector-curvature="0"
         id="path14"
         style="fill:#f03c2e;fill-opacity:1;fill-rule:nonzero;stroke:none" /></g></g></svg>
